libs/ui/packages/crypto-icons/src/svg/PYUSD.svg

<svg width="48" height="48" viewBox="0 0 48 48" fill="none" xmlns="http://www.w3.org/2000/svg">
<path d="M27.8122 9.60547H25.177H19.3683C18.4332 9.60547 17.6115 10.2855 17.4698 11.2206L16.8748 15.0458V15.0742H14.0412C13.2762 15.0742 12.6811 15.6976 12.6811 16.4343C12.6811 17.1993 13.3045 17.7944 14.0412 17.8227H16.4497L16.0247 20.4579L15.9964 20.6562H13.1628C12.3978 20.6562 11.8027 21.2796 11.8027 22.0163C11.8027 22.753 12.4261 23.3764 13.1628 23.3764H15.5713L14.2679 31.622L13.8429 34.3705L13.6162 35.844C13.4462 37.0057 14.3246 38.0541 15.5147 38.0541H17.3281H19.8216H21.8618C22.7968 38.0541 23.5902 37.3741 23.7602 36.439L24.9787 28.8735H25.687H27.9539C33.3092 28.8735 37.6729 24.4532 37.5879 19.0695C37.5029 13.7708 33.0825 9.60547 27.8122 9.60547ZM19.2266 17.8227L27.7838 17.851C28.5489 17.851 29.2006 18.4744 29.2006 19.2678C29.2006 20.0329 28.5772 20.6846 27.7838 20.6846H18.7732L19.2266 17.8227ZM27.8405 26.0966H26.3954H25.7154H24.2703C23.3352 26.0966 22.5418 26.7767 22.3718 27.7117L21.1534 35.3056H16.5064L18.3482 23.4048H27.7838C30.079 23.4048 31.9208 21.5346 31.9208 19.2678C31.9208 17.001 30.0507 15.1309 27.7838 15.1309L19.6799 15.1025L20.105 12.3823H27.9822C31.8358 12.3823 34.9527 15.5559 34.8677 19.4095C34.7543 23.1497 31.6091 26.0966 27.8405 26.0966Z" fill="white"/>
</svg>

<svg xmlns="http://www.w3.org/2000/svg" width="48" height="48" viewBox="0 0 48 48" fill="none"><path fill="#fff" d="M27.812 9.605h-8.444c-.935 0-1.756.68-1.898 1.616l-.595 3.825v.028H14.04a1.36 1.36 0 0 0-1.36 1.36c0 .765.624 1.36 1.36 1.389h2.409l-.425 2.635-.029.198h-2.833a1.36 1.36 0 0 0-1.36 1.36c0 .737.623 1.36 1.36 1.36h2.408l-1.303 8.246-.425 2.749-.227 1.473a1.917 1.917 0 0 0 1.899 2.21h6.347c.935 0 1.728-.68 1.898-1.615l1.219-7.565h2.975c5.355 0 9.719-4.42 9.634-9.804-.085-5.3-4.505-9.465-9.776-9.465m-8.585 8.218 8.557.028a1.42 1.42 0 0 1 1.417 1.417 1.42 1.42 0 0 1-1.417 1.417h-9.01zm8.613 8.274h-3.57c-.935 0-1.728.68-1.898 1.615l-1.219 7.594h-4.647l1.842-11.901h9.436a4.14 4.14 0 0 0 4.137-4.137c0-2.267-1.87-4.137-4.137-4.137l-8.104-.029.425-2.72h7.877c3.854 0 6.97 3.174 6.886 7.028-.114 3.74-3.259 6.687-7.028 6.687"/></svg>
